X:1
T:Madrigal
T:Madrigal
T:Kom du ljuva hjärtevän
T:Adam de la Halle
C:Adam de la Halle
%%score [ 1 2 3 4 ]
L:1/8
M:3/4
K:Bb
V:1 treble transpose=-2 nm="B♭ Trumpet 1"
V:2 treble transpose=-2 nm="B♭ Trumpet 2"
V:3 bass nm="Trombone"
V:4 bass nm="Tuba"
V:1
[K:C] c2 d2 e2 | dc B4 | c2 d4 | c4 z2 | c2 d2 e2 | dc B4 | c2 d4 | c4 z2 | e2 g4 | f2 g4 | %10
 e2 c2 d2 | e2 e4 | d2 d4 | c4 z2 | e2 g4 | f2 g4 | e2 c2 d2 | e2 e4 | d2 d4 | c6 |] %20
V:2
[K:C] E2 F2 G2 | FE D4 | E2 G2 F2 | E4 z2 | E2 F2 G2 | FE D2 GF | E2 G4 | E4 z2 | c6 | A2 B4 | %10
 E4 F2 | G2 G4 | F6 | E4 z2 | G2 e4 | c2 f4 | G2 A4 | ^G2 G4 | !courtesy!=G2 F4 | E6 |] %20
V:3
 F,4 B,2 | G,2 F,4 | B,2 A,4 | F,4 z2 | F,2 A,2 B,2 | G,4 C2 | B,4 A,2 | F,4 z2 | F2 D4 | E4 C2 | %10
 F,2 G,4 | A,2 A,4 | A,6 | F,4 z2 | B,6 | !~(!G,2 !~)!A,4 | D4 C2 | A,2 A,4 | A,6 | F,6 |] %20
V:4
 B,,4 B,,2 | E,,2 F,,4 | G,,2 F,,4 | B,,4 z2 | B,,4 B,,2 | E,,2 F,,4 | G,,2 F,,4 | B,,4 z2 | %8
 B,,4 F,,2 | C,4 F,,2 | B,,2 G,,2 E,,2 | D,,2 D,,4 | F,,6 | B,,4 z2 | B,,4 F,,2 | C,4 F,,2 | %16
 B,,2 G,,2 E,,2 | D,,2 D,,4 | F,,6 | [B,,,B,,]6 |] %20

